material/.icons/material/heart-pulse.svg

<svg xmlns="http://www.w3.org/2000/svg" viewBox="0 0 24 24"><path d="M7.5 4A5.5 5.5 0 002 9.5c0 .5.09 1 .22 1.5H6.3l1.27-3.37c.3-.8 1.48-.88 1.86 0L11.5 13l.59-1.42c.13-.33.48-.58.91-.58h8.78c.13-.5.22-1 .22-1.5A5.5 5.5 0 0016.5 4c-1.86 0-3.5.93-4.5 2.34C11 4.93 9.36 4 7.5 4M3 12.5a1 1 0 00-1 1 1 1 0 001 1h2.44L11 20c1 .9 1 .9 2 0l5.56-5.5H21a1 1 0 001-1 1 1 0 00-1-1h-7.6l-.93 2.3c-.4 1.01-1.55.87-1.92.03L8.5 9.5l-.96 2.33c-.15.38-.49.67-.94.67H3z"/></svg>

<?xml version="1.0" encoding="UTF-8"?><!DOCTYPE svg PUBLIC "-//W3C//DTD SVG 1.1//EN" "http://www.w3.org/Graphics/SVG/1.1/DTD/svg11.dtd"><svg xmlns="http://www.w3.org/2000/svg" xmlns:xlink="http://www.w3.org/1999/xlink" version="1.1" id="mdi-heart-pulse" width="24" height="24" viewBox="0 0 24 24"><path d="M7.5,4A5.5,5.5 0 0,0 2,9.5C2,10 2.09,10.5 2.22,11H6.3L7.57,7.63C7.87,6.83 9.05,6.75 9.43,7.63L11.5,13L12.09,11.58C12.22,11.25 12.57,11 13,11H21.78C21.91,10.5 22,10 22,9.5A5.5,5.5 0 0,0 16.5,4C14.64,4 13,4.93 12,6.34C11,4.93 9.36,4 7.5,4V4M3,12.5A1,1 0 0,0 2,13.5A1,1 0 0,0 3,14.5H5.44L11,20C12,20.9 12,20.9 13,20L18.56,14.5H21A1,1 0 0,0 22,13.5A1,1 0 0,0 21,12.5H13.4L12.47,14.8C12.07,15.81 10.92,15.67 10.55,14.83L8.5,9.5L7.54,11.83C7.39,12.21 7.05,12.5 6.6,12.5H3Z" /></svg>
